Media/youtube.svg

<svg width="55" height="55" viewBox="0 0 55 55" fill="none" xmlns="http://www.w3.org/2000/svg">
<path d="M27.4646 45.833C32.3023 45.833 36.9418 43.9015 40.3626 40.4633C43.7833 37.0251 45.7051 32.362 45.7051 27.4997C45.7051 22.6374 43.7833 17.9742 40.3626 14.536C36.9418 11.0979 32.3023 9.16634 27.4646 9.16634C22.6269 9.16634 17.9874 11.0979 14.5667 14.536C11.1459 17.9742 9.22417 22.6374 9.22417 27.4997C9.22417 32.362 11.1459 37.0251 14.5667 40.4633C17.9874 43.9015 22.6269 45.833 27.4646 45.833ZM27.4646 50.4163C14.8719 50.4163 4.66406 40.1565 4.66406 27.4997C4.66406 14.8428 14.8719 4.58301 27.4646 4.58301C40.0574 4.58301 50.2652 14.8428 50.2652 27.4997C50.2652 40.1565 40.0574 50.4163 27.4646 50.4163Z" fill="white"/>
<path d="M34.1293 19.5381H20.8001C18.1849 19.5381 16.0645 21.6464 16.0645 24.2452V30.8681C16.0645 33.4691 18.1849 35.5752 20.8001 35.5752H34.1293C36.7446 35.5752 38.865 33.4668 38.865 30.8681V24.2452C38.865 21.6441 36.7446 19.5381 34.1293 19.5381ZM30.9281 27.8798L24.6922 30.836C24.654 30.8541 24.612 30.8623 24.5698 30.8597C24.5277 30.8571 24.4869 30.8439 24.4512 30.8213C24.4155 30.7987 24.3861 30.7674 24.3657 30.7303C24.3452 30.6932 24.3344 30.6515 24.3342 30.6091V24.5133C24.3346 24.4703 24.3459 24.4282 24.367 24.3909C24.3882 24.3535 24.4184 24.3222 24.455 24.3C24.4915 24.2777 24.5331 24.2652 24.5758 24.2636C24.6186 24.262 24.661 24.2715 24.699 24.291L30.9327 27.4306C30.9737 27.4521 31.0079 27.4846 31.0317 27.5245C31.0555 27.5644 31.0678 27.6101 31.0673 27.6566C31.0668 27.7031 31.0536 27.7485 31.029 27.7879C31.0045 27.8273 30.9695 27.8591 30.9281 27.8798Z" fill="white"/>
</svg>

<svg width="55" height="55" fill="none" xmlns="http://www.w3.org/2000/svg"><path d="M27.465 45.833c4.837 0 9.477-1.931 12.898-5.37A18.381 18.381 0 0 0 45.705 27.5c0-4.863-1.922-9.526-5.342-12.964a18.194 18.194 0 0 0-12.898-5.37 18.194 18.194 0 0 0-12.898 5.37A18.38 18.38 0 0 0 9.224 27.5a18.38 18.38 0 0 0 5.343 12.963 18.193 18.193 0 0 0 12.898 5.37Zm0 4.583c-12.593 0-22.8-10.26-22.8-22.916 0-12.657 10.207-22.917 22.8-22.917 12.592 0 22.8 10.26 22.8 22.917 0 12.657-10.208 22.916-22.8 22.916Z" fill="#fff"/><path d="M34.13 19.538H20.8c-2.615 0-4.736 2.108-4.736 4.707v6.623c0 2.601 2.12 4.707 4.736 4.707h13.33c2.615 0 4.735-2.108 4.735-4.707v-6.623c0-2.6-2.12-4.707-4.736-4.707Zm-3.202 8.342-6.236 2.956a.25.25 0 0 1-.358-.227v-6.096a.253.253 0 0 1 .242-.25.25.25 0 0 1 .123.028l6.234 3.14a.251.251 0 0 1 .096.357.251.251 0 0 1-.1.092Z" fill="#fff"/></svg>
